src/categories/32/applications-utilities.svg

<svg width="32" height="32" version="1.1" viewBox="0 0 32 32" xmlns="http://www.w3.org/2000/svg" xmlns:xlink="http://www.w3.org/1999/xlink">
 <defs>
  <linearGradient id="a" x2="0" y1="532.8" y2="527.8" gradientUnits="userSpaceOnUse">
   <stop stop-color="#ebf1f1" offset="0"/>
   <stop stop-color="#fcfcfc" offset="1"/>
  </linearGradient>
  <filter id="g" x="-.036" y="-.036" width="1.072" height="1.072" color-interpolation-filters="sRGB">
   <feGaussianBlur stdDeviation="0.45"/>
  </filter>
  <linearGradient id="b" x1="16" x2="16" y1="4" y2="11" gradientUnits="userSpaceOnUse">
   <stop stop-color="#fdfefe" offset="0"/>
   <stop stop-color="#dfe4e6" offset="1"/>
  </linearGradient>
  <linearGradient id="f" x1="16" x2="16" y1="1" y2="31" gradientUnits="userSpaceOnUse">
   <stop stop-color="#f71252" offset="0"/>
   <stop stop-color="#ff5c39" offset="1"/>
  </linearGradient>
  <filter id="j" x="-.04125" y="-.11" width="1.0825" height="1.22" color-interpolation-filters="sRGB">
   <feGaussianBlur stdDeviation="0.275"/>
  </filter>
  <linearGradient id="e" x1="7.5" x2="7.5" y1="12" y2="17" gradientUnits="userSpaceOnUse" xlink:href="#a"/>
  <linearGradient id="d" x1="7.5" x2="7.5" y1="12" y2="17" gradientTransform="translate(17)" gradientUnits="userSpaceOnUse" xlink:href="#a"/>
  <filter id="i" x="-.06" y="-.06" width="1.12" height="1.12" color-interpolation-filters="sRGB">
   <feGaussianBlur stdDeviation="0.125"/>
  </filter>
  <filter id="h" x="-.06" y="-.06" width="1.12" height="1.12" color-interpolation-filters="sRGB">
   <feGaussianBlur stdDeviation="0.125"/>
  </filter>
  <radialGradient id="c" cx="15.851" cy="20.863" r="13.734" gradientTransform="matrix(1 0 0 .32764 0 3.698)" gradientUnits="userSpaceOnUse">
   <stop stop-opacity=".62745" offset="0"/>
   <stop stop-color="#030303" stop-opacity="0" offset="1"/>
  </radialGradient>
 </defs>
 <circle cx="16" cy="16" r="15" fill-rule="evenodd" filter="url(#g)" opacity=".25" style="paint-order:fill markers stroke"/>
 <circle cx="16" cy="16" r="15" fill="url(#f)" fill-rule="evenodd" style="paint-order:fill markers stroke"/>
 <g stroke-linecap="square" stroke-width=".1">
  <path d="m11 4c-1.662 0-3 1.338-3 3v3h2v-3c0-0.55401 0.44598-1 1-1h10c0.55402 0 1 0.44599 1 1v3h2v-3c0-1.662-1.338-3-3-3h-10z" filter="url(#j)" opacity=".25"/>
  <path d="m11 4c-1.662 0-3 1.338-3 3v3h2v-3c0-0.55401 0.44598-1 1-1h10c0.55402 0 1 0.44599 1 1v3h2v-3c0-1.662-1.338-3-3-3h-10z" fill="url(#b)"/>
 </g>
 <path d="m7.5 12a2.5 2.5 0 0 0-2.5 2.5 2.5 2.5 0 0 0 2.5 2.5 2.5 2.5 0 0 0 2.5-2.5 2.5 2.5 0 0 0-2.5-2.5zm0 1a1.5 1.5 0 0 1 1.5 1.5 1.5 1.5 0 0 1-1.5 1.5 1.5 1.5 0 0 1-1.5-1.5 1.5 1.5 0 0 1 1.5-1.5z" fill-rule="evenodd" filter="url(#i)" opacity=".25" style="paint-order:normal"/>
 <path d="m7.5 12a2.5 2.5 0 0 0-2.5 2.5 2.5 2.5 0 0 0 2.5 2.5 2.5 2.5 0 0 0 2.5-2.5 2.5 2.5 0 0 0-2.5-2.5zm0 1a1.5 1.5 0 0 1 1.5 1.5 1.5 1.5 0 0 1-1.5 1.5 1.5 1.5 0 0 1-1.5-1.5 1.5 1.5 0 0 1 1.5-1.5z" fill="url(#e)" fill-rule="evenodd" style="paint-order:normal"/>
 <path d="m24.5 12a2.5 2.5 0 0 0-2.5 2.5 2.5 2.5 0 0 0 2.5 2.5 2.5 2.5 0 0 0 2.5-2.5 2.5 2.5 0 0 0-2.5-2.5zm0 1a1.5 1.5 0 0 1 1.5 1.5 1.5 1.5 0 0 1-1.5 1.5 1.5 1.5 0 0 1-1.5-1.5 1.5 1.5 0 0 1 1.5-1.5z" fill-rule="evenodd" filter="url(#h)" opacity=".25" style="paint-order:normal"/>
 <path d="m24.5 12a2.5 2.5 0 0 0-2.5 2.5 2.5 2.5 0 0 0 2.5 2.5 2.5 2.5 0 0 0 2.5-2.5 2.5 2.5 0 0 0-2.5-2.5zm0 1a1.5 1.5 0 0 1 1.5 1.5 1.5 1.5 0 0 1-1.5 1.5 1.5 1.5 0 0 1-1.5-1.5 1.5 1.5 0 0 1 1.5-1.5z" fill="url(#d)" fill-rule="evenodd" style="paint-order:normal"/>
 <path d="m16 1a15 15 0 0 0-13.74 9h27.469a15 15 0 0 0-13.729-9z" fill="url(#c)" opacity=".35" style="paint-order:fill markers stroke"/>
</svg>

<svg width="32" height="32" xmlns="http://www.w3.org/2000/svg" xmlns:xlink="http://www.w3.org/1999/xlink"><defs><linearGradient id="a" x2="0" y1="532.8" y2="527.8" gradientUnits="userSpaceOnUse"><stop stop-color="#ebf1f1" offset="0"/><stop stop-color="#fcfcfc" offset="1"/></linearGradient><linearGradient id="e" x1="16" x2="16" y1="4" y2="11" gradientUnits="userSpaceOnUse"><stop stop-color="#fdfefe" offset="0"/><stop stop-color="#dfe4e6" offset="1"/></linearGradient><linearGradient id="c" x1="16" x2="16" y1="1" y2="31" gradientUnits="userSpaceOnUse"><stop stop-color="#f71252" offset="0"/><stop stop-color="#ff5c39" offset="1"/></linearGradient><linearGradient id="g" x1="7.5" x2="7.5" y1="12" y2="17" gradientUnits="userSpaceOnUse" xlink:href="#a"/><linearGradient id="i" x1="7.5" x2="7.5" y1="12" y2="17" gradientTransform="translate(17)" gradientUnits="userSpaceOnUse" xlink:href="#a"/><filter id="b" x="-.036" y="-.036" width="1.072" height="1.072" color-interpolation-filters="sRGB"><feGaussianBlur stdDeviation=".45"/></filter><filter id="d" x="-.041" y="-.11" width="1.083" height="1.22" color-interpolation-filters="sRGB"><feGaussianBlur stdDeviation=".275"/></filter><filter id="f" x="-.06" y="-.06" width="1.12" height="1.12" color-interpolation-filters="sRGB"><feGaussianBlur stdDeviation=".125"/></filter><filter id="h" x="-.06" y="-.06" width="1.12" height="1.12" color-interpolation-filters="sRGB"><feGaussianBlur stdDeviation=".125"/></filter><radialGradient id="j" cx="15.851" cy="20.863" r="13.734" gradientTransform="matrix(1 0 0 .32764 0 3.698)" gradientUnits="userSpaceOnUse"><stop stop-opacity=".627" offset="0"/><stop stop-color="#030303" stop-opacity="0" offset="1"/></radialGradient></defs><circle cx="16" cy="16" r="15" fill-rule="evenodd" filter="url(#b)" opacity=".25" style="paint-order:fill markers stroke"/><circle cx="16" cy="16" r="15" fill="url(#c)" fill-rule="evenodd" style="paint-order:fill markers stroke"/><g stroke-linecap="square" stroke-width=".1"><path d="M11 4C9.338 4 8 5.338 8 7v3h2V7c0-.554.446-1 1-1h10c.554 0 1 .446 1 1v3h2V7c0-1.662-1.338-3-3-3H11z" filter="url(#d)" opacity=".25"/><path d="M11 4C9.338 4 8 5.338 8 7v3h2V7c0-.554.446-1 1-1h10c.554 0 1 .446 1 1v3h2V7c0-1.662-1.338-3-3-3H11z" fill="url(#e)"/></g><path d="M7.5 12A2.5 2.5 0 0 0 5 14.5 2.5 2.5 0 0 0 7.5 17a2.5 2.5 0 0 0 2.5-2.5A2.5 2.5 0 0 0 7.5 12zm0 1A1.5 1.5 0 0 1 9 14.5 1.5 1.5 0 0 1 7.5 16 1.5 1.5 0 0 1 6 14.5 1.5 1.5 0 0 1 7.5 13z" fill-rule="evenodd" filter="url(#f)" opacity=".25" style="paint-order:normal"/><path d="M7.5 12A2.5 2.5 0 0 0 5 14.5 2.5 2.5 0 0 0 7.5 17a2.5 2.5 0 0 0 2.5-2.5A2.5 2.5 0 0 0 7.5 12zm0 1A1.5 1.5 0 0 1 9 14.5 1.5 1.5 0 0 1 7.5 16 1.5 1.5 0 0 1 6 14.5 1.5 1.5 0 0 1 7.5 13z" fill="url(#g)" fill-rule="evenodd" style="paint-order:normal"/><path d="M24.5 12a2.5 2.5 0 0 0-2.5 2.5 2.5 2.5 0 0 0 2.5 2.5 2.5 2.5 0 0 0 2.5-2.5 2.5 2.5 0 0 0-2.5-2.5zm0 1a1.5 1.5 0 0 1 1.5 1.5 1.5 1.5 0 0 1-1.5 1.5 1.5 1.5 0 0 1-1.5-1.5 1.5 1.5 0 0 1 1.5-1.5z" fill-rule="evenodd" filter="url(#h)" opacity=".25" style="paint-order:normal"/><path d="M24.5 12a2.5 2.5 0 0 0-2.5 2.5 2.5 2.5 0 0 0 2.5 2.5 2.5 2.5 0 0 0 2.5-2.5 2.5 2.5 0 0 0-2.5-2.5zm0 1a1.5 1.5 0 0 1 1.5 1.5 1.5 1.5 0 0 1-1.5 1.5 1.5 1.5 0 0 1-1.5-1.5 1.5 1.5 0 0 1 1.5-1.5z" fill="url(#i)" fill-rule="evenodd" style="paint-order:normal"/><path d="M16 1a15 15 0 0 0-13.74 9h27.469A15 15 0 0 0 16 1z" fill="url(#j)" opacity=".35" style="paint-order:fill markers stroke"/></svg>
